X:185
T: Die Passion aus den vier Evangelisten
N: A0543B
O: Europa, Mitteleuropa, Deutschland
N: Dresdner Gsgb. 1593
R: Romanze, Ballade, Lied, religioeses Lied
M: 4/2
L: 1/2
K: G
G | GdBG | Aded2^c | d2z
d | B2cd2d | c2BA2
G | B2cd2d | c2BA2
G | B2cd2c | BGAG2

@@@ Tune index: 498
